modules/material-icons/icons/odnoklassniki.svg

<svg xmlns="http://www.w3.org/2000/svg" height="480" width="480" id="svg3390"><defs id="defs3394"><clipPath id="clipPath3404"><path id="path3406" d="M0 48h48V0H0v48z"/></clipPath><clipPath id="clipPath3416"><path id="path3418" d="M0 48h48V0H0v48z"/></clipPath><clipPath id="clipPath3426"><path id="path3428" d="M0 48h48V0H0v48z"/></clipPath><clipPath id="clipPath3434"><path id="path3436" d="M0 48h48V0H0v48z"/></clipPath><clipPath id="clipPath3442"><path id="path3444" d="M0 48h48V0H0v48z"/></clipPath><clipPath id="clipPath3446"><path id="path3448" d="M0 48h48V0H0v48z"/></clipPath><clipPath id="clipPath3450"><path id="path3452" d="M48 48H0V0h48v48z"/></clipPath><clipPath id="clipPath3658"><path id="path3660" d="M0 48h48V0H0v48z"/></clipPath><clipPath id="clipPath3668"><path id="path3670" d="M0 48h48V0H0v48z"/></clipPath><clipPath id="clipPath3676"><path id="path3678" d="M0 48h48V0H0v48z"/></clipPath><clipPath id="clipPath3680"><path id="path3682" d="M0 0h48v48H0V0z"/></clipPath></defs><g transform="matrix(1.25 0 0 -1.25 0 480)" id="g3398"><g transform="matrix(6.38398 0 0 -6.40003 32.167 352.07)" id="g4172"><path d="M25 25.32c6.989 0 12.654-5.665 12.654-12.655C37.654 5.675 31.989.011 25 .011c-6.99 0-12.654 5.666-12.654 12.654 0 6.988 5.665 12.655 12.654 12.655zm0-18.88a6.225 6.225 0 1 1 0 12.45 6.226 6.226 0 0 1 0-12.45z" id="path4162"/><path d="M39.587 26.864c-.714-1.436-2.694-2.629-5.323-.558C30.709 29.108 25 29.108 25 29.108s-5.71 0-9.265-2.802c-2.63-2.072-4.608-.879-5.323.558-1.246 2.502.162 3.712 3.337 5.75 2.713 1.742 6.44 2.392 8.846 2.635l-2.01 2.01-7.456 7.456a2.902 2.902 0 0 0 0 4.104l.342.342a2.902 2.902 0 0 0 4.104 0l7.458-7.456 7.456 7.456a2.902 2.902 0 0 0 4.104 0l.342-.342a2.902 2.902 0 0 0 0-4.104l-9.473-9.473c2.409-.248 6.096-.901 8.786-2.629 3.175-2.038 4.583-3.248 3.338-5.749z" id="path4164"/></g></g><style id="style3999"></style><style id="style4048"></style></svg>

<?xml version="1.0" encoding="UTF-8" standalone="no"?>
<svg
   xmlns:dc="http://purl.org/dc/elements/1.1/"
   xmlns:cc="http://creativecommons.org/ns#"
   xmlns:rdf="http://www.w3.org/1999/02/22-rdf-syntax-ns#"
   xmlns:svg="http://www.w3.org/2000/svg"
   xmlns="http://www.w3.org/2000/svg"
   viewBox="0 0 480 480"
   height="480"
   width="480"
   xml:space="preserve"
   version="1.1"
   id="svg3390"><metadata
     id="metadata3396"><rdf:RDF><cc:Work
         rdf:about=""><dc:format>image/svg+xml</dc:format><dc:type
           rdf:resource="http://purl.org/dc/dcmitype/StillImage" /><dc:title></dc:title></cc:Work></rdf:RDF></metadata><defs
     id="defs3394"><clipPath
       id="clipPath3404"
       clipPathUnits="userSpaceOnUse"><path
         id="path3406"
         d="M 0,48 48,48 48,0 0,0 0,48 Z" /></clipPath><clipPath
       id="clipPath3416"
       clipPathUnits="userSpaceOnUse"><path
         id="path3418"
         d="M 0,48 48,48 48,0 0,0 0,48 Z" /></clipPath><clipPath
       id="clipPath3426"
       clipPathUnits="userSpaceOnUse"><path
         id="path3428"
         d="M 0,48 48,48 48,0 0,0 0,48 Z" /></clipPath><clipPath
       id="clipPath3434"
       clipPathUnits="userSpaceOnUse"><path
         id="path3436"
         d="M 0,48 48,48 48,0 0,0 0,48 Z" /></clipPath><clipPath
       id="clipPath3442"
       clipPathUnits="userSpaceOnUse"><path
         id="path3444"
         d="m -2.13623e-4,48.0002 48.000013623,0 0,-48.000047412 -48.000013623,0 0,48.000047412 z" /></clipPath><clipPath
       id="clipPath3446"
       clipPathUnits="userSpaceOnUse"><path
         id="path3448"
         d="m -2.13623e-4,47.9998 48.000013623,0 0,-47.999952588 -48.000013623,0 0,47.999952588 z" /></clipPath><clipPath
       id="clipPath3450"
       clipPathUnits="userSpaceOnUse"><path
         id="path3452"
         d="M 48,48 0,48 0,0 48,0 48,48 Z" /></clipPath><clipPath
       id="clipPath3658"
       clipPathUnits="userSpaceOnUse"><path
         id="path3660"
         d="M 0,48 48,48 48,0 0,0 0,48 Z" /></clipPath><clipPath
       id="clipPath3668"
       clipPathUnits="userSpaceOnUse"><path
         id="path3670"
         d="m -2.28882e-4,48.0001 48.000028882,0 0,-47.99997793 -48.000028882,0 0,47.99997793 z" /></clipPath><clipPath
       id="clipPath3676"
       clipPathUnits="userSpaceOnUse"><path
         id="path3678"
         d="m -2.28882e-4,48.0001 48.000028882,0 0,-47.99997793 -48.000028882,0 0,47.99997793 z" /></clipPath><clipPath
       id="clipPath3680"
       clipPathUnits="userSpaceOnUse"><path
         id="path3682"
         d="M 0,0 48,0 48,48 0,48 0,0 Z" /></clipPath></defs><g
     transform="matrix(1.25,0,0,-1.25,0,480)"
     id="g3398"><g
       id="g3412"><g
         clip-path="url(#clipPath3416)"
         id="g3414"><g
           transform="matrix(1,0,0,-1,0,48)"
           id="g3420"><g
             id="g3422"><g
               clip-path="url(#clipPath3426)"
               id="g3424" /></g></g></g></g><path
       id="path3762"
       d=""
       style="fill:#000000" /><path
       id="path3760"
       d=""
       style="fill:#000000" /><path
       id="path3758"
       d=""
       style="fill:#000000" /><g
       transform="matrix(6.3839757,0,0,-6.400032,32.167359,352.0704)"
       id="g4172"><path
         style="fill:#000000"
         d="m 25,25.32 c 6.989,0 12.654,-5.665 12.654,-12.655 0,-6.99 -5.665,-12.654 -12.654,-12.654 -6.99,0 -12.654,5.666 -12.654,12.654 0,6.988 5.665,12.655 12.654,12.655 z M 25,6.44 c 3.438,0 6.225,2.787 6.225,6.225 0,3.438 -2.788,6.225 -6.225,6.225 -3.438,0 -6.227,-2.787 -6.227,-6.225 0,-3.438 2.788,-6.225 6.227,-6.225 z"
         id="path4162" /><path
         style="fill:#000000"
         d="M 39.587,26.864 C 38.873,25.428 36.893,24.235 34.264,26.306 30.709,29.108 25,29.108 25,29.108 c 0,0 -5.71,0 -9.265,-2.802 -2.63,-2.072 -4.608,-0.879 -5.323,0.558 -1.246,2.502 0.162,3.712 3.337,5.75 2.713,1.742 6.44,2.392 8.846,2.635 l -2.01,2.01 c -2.83,2.829 -5.562,5.562 -7.456,7.456 -1.133,1.133 -1.133,2.971 0,4.104 l 0.342,0.342 c 1.133,1.133 2.971,1.133 4.104,0 l 7.458,-7.456 c 2.83,2.83 5.562,5.562 7.456,7.456 1.133,1.133 2.971,1.133 4.104,0 l 0.342,-0.342 c 1.133,-1.134 1.133,-2.971 0,-4.104 l -9.473,-9.473 c 2.409,-0.248 6.096,-0.901 8.786,-2.629 3.175,-2.038 4.583,-3.248 3.338,-5.749 z"
         id="path4164" /></g></g><style
     type="text/css"
     id="style3999">
	.st0{fill:#FFFFFF;}
</style><style
     type="text/css"
     id="style4048">
	.st0{fill:#FFFFFF;}
</style></svg>
